X:1
T:Anitra's Dance
T:Edvard Grieg
%%score { ( 1 3 ) | ( 2 4 ) }
L:1/8
Q:1/4=72
M:3/4
K:C
V:1 treble nm="Piano"
V:3 treble 
V:2 treble 
V:4 treble 
V:1
!mp!"^Adagio" !fermata![e^gbe']6- | [egbe']2 !fermata!z2 z2 | %2
[Q:1/4=156]"^Tempo di Mazurka" z2 .[A,C]2 .[B,D]2 | z2 .[CE]2 .[DF]2 | z2 .[CE]2 .[B,D]2 | %5
 z2 .[A,C]2 .[^G,B,E]2 |{/AB} .A.^G.A.B.c.d | ea .e2{/de} d2 | ca .c2{/Bc} B2 | A4 z2 | %10
 Ac A2{/GA} G2 | ^Fc F4 | =Fc F2{/EF} E2 | ^DB D4 | .B.^A.^F.B.=A.=F | .B!<(!.^G.E.B.=G.^D!<)! | %16
!mp! .B.^F!>(!.=D.B.=F.^C | .B.=E!>)!!pp!.=C.B.^D.B, |!<(!{/E^F} .E.^D!p!.E.F.G.A | %19
 .B.e!mp!.B.A.G.^F | .E!mf!.^F.G!<)!.A .[B,B]2 | .[Ee]2 z2!p! E2 |{/AB} .A.^G.A.B.c!mp!.d | %23
 ea .e2!mf!{/de} d2 | ca!mp! .c2{/Bc} B2 |!p! A4 z2 | Ac .A2{/GA} G2 | ^Fc F4 | =Fc .F2{/EF} E2 | %29
 ^DB D4 |!pp! .B.^A.^F.B.=A.=F |!<(! .B.^G!p!.E.B.=G!<)!.^D | .B.^F!>(!.=D.B.=F.^C | %33
 .B!pp!.=E!>)!.=C.B.^D.B, |!<(!{/E^F} .E.^D!p!.E.F.G.A | .B.e!mp!.B.A.G.^F | %36
 .E!mf!.^F.G.A!<)! .[B,B]2 | .[Ee]2 z2 z2 |:!p! [d=f]3 [ce] [ce][Bd] | %39
 [Bd]3!<(! [ce]!mp! [ce]!<)![df] |!mf!!>(! [^Gdf]6!>)! | [^Gde]2 z2 z2 | z2 z2 z!f! f | %43
!p!.d.c .B z z2 | z!f! d!p! .B.A .^G z | z6 | [=g_b]3 [fa] [fa][eg] | [eg]3 [fa] [fa][g_b] | %48
 [^cg_b]6 | [^cga]2 z2 z2 | z2 z2 z _b |!p! gf e z z2 | z!f! g!p! ed ^c z | z6 | %54
 z2 .[D^F]2 .[EG]2 | z2 .[^FA]2!mp! .[GB]2 | z2 .[^FA]2 [EGA]2 |!<(!{/de} d.^c.d.e!f!.^f.g!<)! | %58
 ad' a2!mf!!>(!{/ga} g2 | ^fd' f2!mp!{/ef} e2 | d6!>)! | z2 .[D=F]2 .[EG]2 | z2 .[FA]2 .[G_B]2 | %63
 z2!mf! .[FA]2 [EGA]2 |{/de} d.^c.d.e!f!.f.g | ad' a2!mf!!>(!{/ga} g2 | fd' f2!mp!{/ef} e2 | %67
!p! d6!>)! | z2!p! .[A,CF]2 z c |!<(!{/fg} f!mp!.e.f.g.a!mf!._b!<)! | c'f' c'4 | %71
 z2 .[A,CF]2 .[A,CF]2 | z2 .[A,CE]2 z e |{/ab} a!mp!!<(!.^g .a.b .c'.d' | e'!mf!a'!<)! e'4 | %75
 z2 .[A,CE]2 .[A,CE]2 | z2!f! [E^FA]2 z B |!<(!{/^fg} ^f.^e.f.g!ff!.a.b!<)! | c'c ^f4 | cC ^F4 | %80
 z2!mf! [A,B,=D]2 z!mp! E |!<(!{/Bc} B!mf!.^A.B.c!f!.d.e!<)! | %82
[Q:1/4=144]"^ritard" f!mf!!>(!F B4!>)! | z2 z2!p! E2 | %84
[Q:1/4=156]"^a tempo"!<(!{/AB} A.^G.A!mp!.B.c.d | ea [Ace]2 [FBd]2 | %86
 [Ec]!<)![Ae]!f! [Ec]2!>(!{/Bc} [^GB]2 | A6!>)! | ac'!>(! a2{/ga} g2!>)! | ^fc' f4 | %90
 =fc'!>(! f2!mp!{/ef} e2!>)! |!p! ^db d4 |!mf! =df d2!mp!{/cd} c2 |!p! =Bf B4 | %94
!mf! _Bf B2!mp!{/AB} A2 | ^Ge G4 |!pp! .e.^d.B.e.=d._B |!<(! .e.^c.A.e!mp!.=c.^G!<)! | %98
 .e.B!p!.=G.e.^A.^F | .e.=A.=F.e.^G.E |!<(!{/AB} .A!mp!.^G.A.B.c.d | .e.a.e.d!mf!.c.B | %102
 .A.B.c!<)!.d!f! .[Ee]2 |1 .[Aa]2 z2 z2 :|2 .[Aa]2 z2 z2 | z6 | %106
[Q:1/4=48]"^Largo" !fermata![Acea]6- | [Acea]2 z2 z2 |] %108
V:2
!ped! !fermata![EB]6- | [EB]2 !fermata!z2!ped-up! z2 |[K:bass]!p! .A,,2 .E,2 .E,.E, | %3
 .A,,2 .E,2 .E,.E, | .A,,2 .E,2 .E,.E, | .A,,2 .E,2 .E,.E, | .A,,2 .[E,A,C]2 .[E,B,D]2 | %7
 .A,,2 .[E,CE]2 .[E,DF]2 | .A,,2 .[E,CE]2 .[E,B,D]2 | .A,,2 .[E,A,C]2 .[A,CE]2 | %10
 .A,,2 .[A,CF]2 .[G,CE]2 | .A,,2 .[^F,C^D]2 .[F,CD]2 | .A,,2 .[A,C]2 .[G,C]2 | %13
 .B,,2 .[^F,B,]2 .[F,B,]2 |!pp! .B,.^A,.^F,.B,.=A,.=F, | .B,.^G,.E,.B,.=G,.^D, | %16
 .B,.^F,.=D,.B,.=F,.^C, | .B,.=E,.=C,.B,.^D,.B,, | .E,.^D,.E,.^F,.G,.A, | .B,.E.B,.A,.G,.^F, | %20
 .E,.^F,.G,.A,!f! .[B,,,B,,]2 | .[E,,E,]2 z2 z2 | .A,,2 .[E,A,C]2 .[E,B,D]2 | .A,,2 .[CE]2 .[DF]2 | %24
 .A,,2 .[E,CE]2 .[E,B,D]2 | .A,,2 .[E,A,C]2 .[A,CE]2 | .A,,2 .[A,CF]2 .[G,CE]2 | %27
 .A,,2 .[^F,C^D]2 .[F,CD]2 | .A,,2 .[A,C]2 .[G,C]2 | .B,,2 .[^F,B,]2 .[F,B,]2 | %30
 .B,.^A,.^F,.B,.=A,.=F, | .B,.^G,.E,.B,.=G,!mp!.^D, | .B,.^F,.=D,.B,!p!.=F,.^C, | %33
 .B,.=E,.=C,.B,.^D,.B,, | .E,.^D,.E,.^F,.G,.A, | .B,.E.B,.A,.G,.^F, | %36
 .E,.^F,.G,.A,!f! .[B,,,B,,]2 | .[E,,E,]2 z2 z2 |: .E,,2 .[B,,E,^G,]2 .[E,G,D]2 | %39
 .E,,2 .[B,,E,^G,]2 .[E,G,D]2 | .E,,2 .[B,,E,^G,]2!mp! .[E,G,D]2 | %41
!p! .E,,2 .[B,,E,^G,]2 .[E,G,D]2 | z .F.D.C .B, F | .D.C .B, .D.B,.A, | .^G, D.B,.A, .G, .B, | %45
!mp!!>(! .^G,.F, .E,.D,!p!.C,.B,,!>)! | .A,,2 .[E,A,^C]2 .[A,C=G]2 | .A,,2 .[E,A,^C]2 .[A,C=G]2 | %48
 .A,,2 .[E,A,^C]2 .[A,C=G]2 | .A,,2 .[E,A,^C]2 .[A,C=G]2 |[K:treble] z ._B .G.F .E!f!B | %51
 .G.F .E.G .E.D | .^CG .E.D .C.E |!mp!!>(! .^C._B, .A,[K:bass].G,!p! .F,.E,!>)! | %54
!pp! .D,2 .A,2 .A,!p!.A, | .D,2 .A,2 .A,.A, | .D,2!mf! .A,2 .A,.A, | .D,2 .[A,D^F]2 .[A,^CE]2 | %58
 .D,2 .[A,D^F]2 .[A,EG]2 |!8va(! .D,2 .[A,^FA]2 .[A,GB]2 | .D,2!p! .[A,FA]2 .[A,EG]2!8va)! | %61
!pp! .D,2 .A,2 .A,!p!.A, | .D,2 .A,2!mp! .A,.A, | .D,2 .A,2 .A,.A, |!<(! .D,2 .[A,DF]2 .[A,^CE]2 | %65
 .D,2!<)! .[A,DF]2 .[A,EG]2 |!8va(! .D,2 .[A,FA]2 .[A,G_B]2 | .D,2 .[A,FA]2!8va)! .[A,EG]2 | %68
!f! z2 z2!p! .[A,CF]2 | z2 .[A,CF]2 .[A,CF]2 |[K:treble]{/FG} F.E.[A,CF].G.A._B | cf c4[K:bass] | %72
!f! z2!p! z2 .[A,CE]2 | z2 .[A,CE]2 .[A,CE]2 |[K:treble] A^G!mf!!<(![CEA]Bcd | %75
!f! ea e4[K:bass]!<)! | C4[K:treble] .[B,^D^FA]2 |[K:bass] .B,,2[K:treble] .[E^FA]2 .[B,^DFA]2 | %78
[K:bass] .B,,[K:treble]^E[C=E^F]G[B,^DFA] z |[K:bass] B,,2[K:treble] .[CEA]2 .[B,^DA]2[K:bass] | %80
 z2 z2 .[^G,B,D]2 |!p! .E,,2 .[F,A,B,D]2 .[E,^G,B,D]2 | E,,^A, [F,=A,B,]C!mp! [E,^G,B,D] z | %83
!p! .E,,2 .[F,A,D]2 .[E,^G,D]2 | .A,,2 .[E,A,C]2 .[E,B,D]2 | A,^G,.A,!mf!.B,.C.D | %86
 .A,,2 .[E,C]2 .[E,B,]2 | .A,,2!mp! .[E,A,C]2 .[A,CE]2 |!mf! .A,,2[K:treble] .[FAc]2!mp! .[EGc]2 | %89
!p! .A,2 .[^D^Fc]2 .[DFc]2 |[K:bass]!mf! .A,,2 .[A,C=F]2 .[G,CE]2 | .B,,2 .[^F,B,^D]2 .[F,B,D]2 | %92
 .D,,2 .[_B,=D=F]2 .[A,CF]2 | .D,2 .[^G,=B,F]2 .[G,B,F]2 | .D,,2 .[D,F,_B,]2 .[C,F,A,]2 | %95
!p! .E,,2 .[=B,,E,^G,]2 .[B,,E,G,]2 | .E.^D.B,.E.=D._B, | .E.^C.A,.E.=C.^G, | %98
!>(! .E.B,.=G,.E.^A,.^F,!>)! | .E.=A,.=F,.E.^G,.E, | .A,.^G,.A,.B,.C.D | .E.A.E.D.C.B, | %102
 .A,.B,.C.D .[E,,E,]2 |1 .[A,,A,]2 z2 z2 :|2!f! .[A,,A,]2 z2!pp! .[E,,E,]2 | .[A,,,A,,]2 z2 z2 | %106
!ped! !fermata![A,E]6- | [A,E]2 z2!ped-up! z2 |] %108
V:3
 x6 | x6 | x6 | x6 | x6 | x6 | x6 | x6 | x6 | x6 | x6 | x6 | x6 | x6 | x6 | x6 | x6 | x6 | x6 | %19
 x6 | x6 | x6 | x6 | x6 | x6 | x6 | x6 | x6 | x6 | x6 | x6 | x6 | x6 | x6 | x6 | x6 | x6 | x6 |: %38
 ^G6 | ^G6 | x6 | x6 | x6 | x6 | x6 | x6 | ^c6 | ^c6 | x6 | x6 | x6 | x6 | x6 | x6 | x6 | x6 | x6 | %57
 x6 | x6 | x6 | x6 | x6 | x6 | x6 | x6 | x6 | x6 | x6 | x6 | x6 | z2 z2!mp! .[A,CF]2 | x6 | x6 | %73
 x6 | z2 z2!mp! .[A,CE]2 | x6 | x6 | x6 | z2 z2 z!f!!>(! .B | x6 | x2!>)! x4 | x6 | z2 z2 z E | %83
 FF, B,4 | x6 | x6 | x4 D2 | [CE]2 z2 z2 | f4 e2 | ^d6 | A4 G2 | ^F6 | _B4 A2 | ^G6 | D4 C2 | %95
 =B,6 | x6 | x6 | x6 | x6 | x6 | x6 | x6 |1 x6 :|2 x6 | x6 | x6 | x6 |] %108
V:4
 x6 | x6 |[K:bass] x6 | x6 | x6 | x6 | x6 | x6 | x6 | x6 | x6 | x6 | x6 | x6 | x6 | x6 | x6 | x6 | %18
 x6 | x6 | x6 | x6 | x6 | x6 | x6 | x6 | x6 | x6 | x6 | x6 | x6 | x6 | x6 | x6 | x6 | x6 | x6 | %37
 x6 |: x6 | x6 | x6 | x6 | x6 | x6 | x6 | x6 | x6 | x6 | x6 | x6 |[K:treble] x6 | x6 | x6 | %53
 x3[K:bass] x3 | x6 | x6 | x6 | x6 | x6 |!8va(! x6 | x6!8va)! | x6 | x6 | x6 | x6 | x6 |!8va(! x6 | %67
 x4!8va)! x3/2!f! _E,,/ | _E,6- | E,6 |[K:treble] x6 | x11/2[K:bass] ^F,,/ | ^F,6- | F,6 | %74
[K:treble] x6 | x11/2[K:bass]!ff! B,,/ | x4[K:treble] x2 |[K:bass] x[K:treble] x5 | %78
[K:bass] x[K:treble] x5 |[K:bass] x2[K:treble] x7/2[K:bass] E,,/ | =F,4 .E,2 | x6 | x6 | x6 | x6 | %85
 A,,2 z2 z2 | x6 | x6 | x2[K:treble] x4 | x6 |[K:bass] x6 | x6 | x6 | x6 | x6 | x6 | x6 | x6 | x6 | %99
 x6 | x6 | x6 | x6 |1 x6 :|2 x6 | x6 | x6 | x6 |] %108

